X: 1986
T: Yerinde Karcığar
C: Mutlu Torun
O: Turkey
F: http://compmusic.upf.edu/node/140
N: karcigar--sazeseri--sofyan----mutlu_torun
N: makam= karcigar
N: form= sazeseri
N: usul= sofyan = 4/4
M: 4/4
L: 1/16
K: C _2/4B _3/4e ^3/4f 
Q: 1/4=72
%%MIDI tuningsystem comma53
c2d2 A2G2 dcBc d4  | agfg ac'_ba gfed c4  | 
w:   |   | 
{e}dcde ^f2d2 {f}edef g2a2  | gfeg fed^f edce d4  | 
w:   |   | 
BcBA GABc dcBc de^fa  | gf{g}fe {f}ed{e}dc {d}cB{c}BA {B}A4  | 
w:   |   | 
{B}AGFG A4 {_b}agfg a4  | agfg ac'_ba bagf g4  | 
w:   |   | 
gfga a=eed _3/4eded cBc2  | dcdg fagf edcB c4  | 
w:   |   | 
BcBc dBBA ^fgfg a=eed  | zc'_ba gfed edcB A2G2  | 
w:   |   | 
BcBA GABc dcBc de^fa  | gf{g}fe {f}ed{e}dc {d}cB{c}BA {B}A4  | 
w:   |   | 
{B}AGFG A4 {_b}agfg a4  | agfg ac'_ba bagf g4  | 
w:   |   | 
gfga a=eed _3/4eded cBc2  | dcdg fagf edcB c4  | 
w:   |   | 
BcBc dBBA ^fgfg a=eed  | zc'_ba gfed edcB A2G2  | 
w:   |   | 
BcBA GABc dcBc de^fa  | gf{g}fe {f}ed{e}dc {d}cB{c}BA {B}A4  | 
w:   |   | 
|


